X:60
T: Maedchen als Stallknecht
N: Q1100G
O: Mitteleuropa, Deutschland / Frankreich, Lothringen
N: Melodievariante zu Q0100, anderes Lied.
R: ???
M: 2/4
L: 1/8
K: G
G2 | G2A2 | B2cB | A2BA | G2
GG | AAAA | d2cB | A2BA | G2

@@@ Tune index: 1353
